X:30
T:Onons Lo, Bouos Pouloto
M:6/4
L:1/4
N:Lent et trs large
N:A plein voix
N:La Bourre 4th edition 1929, page 44
Z:Steve Mansfield www.lesession.co.uk May 2012
K:Bb
FBcd!fermata!f2 | (d/c/) B2-B3 |
FBc(d!fermata!(f)f/) d/ | c3-!fermata!c2 c | B>G A/ B/ c2 d |
c>B A/ G/ !fermata!F2 F | B>G A/ B/ c3 | f3 c2 d | B2 !fermata!B3 |]

